src/icons/blocks.svg

<svg xmlns="http://www.w3.org/2000/svg" width="24" height="24" fill="none"><path fill="currentColor" fill-rule="evenodd" d="M2 2h9v9H2zm2 2h5v5H4zm9-2h9v9h-9zm2 2h5v5h-5zM2 13v9h9v-9zm7 2H4v5h5zm4-2h9v9h-9zm2 2h5v5h-5z" clip-rule="evenodd"/></svg>

<svg width="24" height="24" viewBox="0 0 24 24" fill="none" xmlns="http://www.w3.org/2000/svg">
<path fill-rule="evenodd" clip-rule="evenodd" d="M2 2H11V11H2V2ZM4 4H9V9H4V4Z" fill="black"/>
<path fill-rule="evenodd" clip-rule="evenodd" d="M13 2H22V11H13V2ZM15 4H20V9H15V4Z" fill="black"/>
<path fill-rule="evenodd" clip-rule="evenodd" d="M2 13V22H11V13H2ZM9 15H4V20H9V15Z" fill="black"/>
<path fill-rule="evenodd" clip-rule="evenodd" d="M13 13H22V22H13V13ZM15 15H20V20H15V15Z" fill="black"/>
</svg>
